X:0225
T:Quick Step 25th Regt.
M:2/4
L:1/16
Q:1/4=88
I: H|| H||
Z:Jack Campin * www.campin.me.uk * 2009
K:G
 G2BG    A2cA| B2dB     G2B2   |c2ec B2dB|ABAG (GF)(ED)|
 G2BG    A2cA| B2dB     c2ec   |cBAG D2f2|g2d2  B2G2  ||
(gf)(ge) edcB|(gf)(ge) (ed)(cB)|ca2c Bg2B|ABAG  GFED   |
 G2BG    A2cA| B2dB     c2ec   |cBAG D2f2|g2d2  B2G2  |]
<end>
<start>
